status/symbolic/battery-missing-symbolic.svg

<?xml version="1.0" encoding="UTF-8" standalone="no"?>
<!-- Created with Inkscape (http://www.inkscape.org/) -->

<svg
   xmlns:dc="http://purl.org/dc/elements/1.1/"
   xmlns:cc="http://creativecommons.org/ns#"
   xmlns:rdf="http://www.w3.org/1999/02/22-rdf-syntax-ns#"
   xmlns:svg="http://www.w3.org/2000/svg"
   xmlns="http://www.w3.org/2000/svg"
   xmlns:sodipodi="http://sodipodi.sourceforge.net/DTD/sodipodi-0.dtd"
   xmlns:inkscape="http://www.inkscape.org/namespaces/inkscape"
   id="svg7384"
   style="enable-background:new"
   height="16"
   width="16"
   version="1.1"
   inkscape:version="0.91 r13725"
   sodipodi:docname="battery-missing-symbolic.svg">
  <sodipodi:namedview
     pagecolor="#a1a1a1"
     bordercolor="#666666"
     borderopacity="1"
     objecttolerance="10"
     gridtolerance="10"
     guidetolerance="10"
     inkscape:pageopacity="0"
     inkscape:pageshadow="2"
     inkscape:window-width="1366"
     inkscape:window-height="633"
     id="namedview11"
     showgrid="false"
     inkscape:zoom="22.627417"
     inkscape:cx="-3.5511493"
     inkscape:cy="10.397301"
     inkscape:window-x="0"
     inkscape:window-y="33"
     inkscape:window-maximized="1"
     inkscape:current-layer="svg7384" />
  <metadata
     id="metadata90">
    <rdf:RDF>
      <cc:Work
         rdf:about="">
        <dc:format>image/svg+xml</dc:format>
        <dc:type
           rdf:resource="http://purl.org/dc/dcmitype/StillImage" />
        <dc:title>Paper Symbolic Icon Theme</dc:title>
      </cc:Work>
    </rdf:RDF>
  </metadata>
  <title
     id="title8473">Paper Symbolic Icon Theme</title>
  <defs
     id="defs7386">
    <filter
       id="filter7554"
       style="color-interpolation-filters:sRGB">
      <feBlend
         id="feBlend7556"
         in2="BackgroundImage"
         mode="darken" />
    </filter>
  </defs>
  <g
     style="fill:#ffffff;fill-opacity:1"
     id="g4250"
     transform="matrix(0.44667783,0,0,0.44667783,18.943601,5.7245885)">
    <path
       style="fill:#bebebe;fill-opacity:1"
       d="M 1.6035156,3.90625 C 1.2699962,3.90625 1,4.1772302 1,4.5097656 l 0,6.9804684 c 0,0.334024 0.2699962,0.603516 0.6035156,0.603516 l 11.7148434,0 c 0.333993,0 0.603516,-0.269995 0.603516,-0.603516 l 0,-1.238281 0.474609,0 C 14.730488,10.251953 15,9.9834201 15,9.6484375 L 15,6.4042969 C 15.000521,6.0702975 14.730485,5.7988281 14.396484,5.7988281 l -0.474609,0 0,-1.2890625 c 0,-0.3325354 -0.269497,-0.6035156 -0.603516,-0.6035156 l -11.7148434,0 z M 7.1953125,5 c 0.493225,0 0.8941819,0.1467702 1.203125,0.4394531 0.3089431,0.2872629 0.4628906,0.6556043 0.4628906,1.1054688 0,0.1951219 -0.051316,0.3932079 -0.1542969,0.59375 -0.102981,0.200542 -0.1940898,0.3429666 -0.2753906,0.4296875 -0.075881,0.081301 -0.1852504,0.1882781 -0.3261718,0.3183594 l -0.039063,0.041016 C 7.7357829,8.2258374 7.5703125,8.5222095 7.5703125,8.8203125 l 0,0.3261719 -0.765625,0 0,-0.3828125 c 0,-0.2439024 0.051316,-0.4515583 0.1542969,-0.625 C 7.0619654,7.9598101 7.2437436,7.7502012 7.5039062,7.5117188 7.6502477,7.3762174 7.7528794,7.2759782 7.8125,7.2109375 7.8775407,7.1404768 7.9403794,7.0469755 8,6.9277344 8.065041,6.8030731 8.097656,6.6750032 8.097656,6.5449219 8.097656,6.2955994 8.016117,6.0951209 7.8535154,5.9433594 7.6963341,5.7915978 7.4771553,5.7148437 7.1953125,5.7148438 c -0.4661247,0 -0.7855426,0.2609247 -0.9589844,0.78125 L 5.5371094,6.203125 C 5.6509305,5.8941819 5.8466241,5.6169493 6.1230469,5.3730469 6.4048897,5.1237243 6.7617082,5 7.1953125,5 Z M 7.1875,9.8945312 c 0.1571816,0 0.287644,0.053708 0.390625,0.1621098 0.1084011,0.108401 0.1621094,0.238863 0.1621094,0.390625 0,0.151761 -0.053708,0.282223 -0.1621094,0.390625 C 7.475144,10.946291 7.3446816,11 7.1875,11 7.0303184,11 6.8974636,10.946291 6.7890625,10.837891 6.6860814,10.729489 6.6347656,10.599027 6.6347656,10.447266 c 0,-0.151762 0.051316,-0.282224 0.1542969,-0.390625 C 6.8974636,9.9482396 7.0303184,9.8945312 7.1875,9.8945312 Z"
       transform="matrix(1.9189285,0,0,1.9189285,-39.851416,-10.25719)"
       id="path4359"
       inkscape:connector-curvature="0" />
    <g
       style="fill:#ffffff;fill-opacity:1"
       transform="matrix(0.02205965,0,0,0.02205965,-29.900002,-0.39149138)"
       id="g3-9">
      <g
         style="fill:#ffffff;fill-opacity:1"
         id="g5-4" />
    </g>
  </g>
  <g
     style="font-style:normal;font-weight:normal;font-size:11.59667683px;line-height:125%;font-family:sans-serif;letter-spacing:0px;word-spacing:0px;fill:#ffffff;fill-opacity:1;stroke:none;stroke-width:1px;stroke-linecap:butt;stroke-linejoin:miter;stroke-opacity:1"
     id="text4361"
     transform="matrix(0.70106994,0,0,0.70106994,9.9402527,3.2870368)" />
</svg>

<?xml version="1.0" encoding="UTF-8" standalone="no"?>
<!-- Created with Inkscape (http://www.inkscape.org/) -->

<svg
   xmlns:dc="http://purl.org/dc/elements/1.1/"
   xmlns:cc="http://creativecommons.org/ns#"
   xmlns:rdf="http://www.w3.org/1999/02/22-rdf-syntax-ns#"
   xmlns:svg="http://www.w3.org/2000/svg"
   xmlns="http://www.w3.org/2000/svg"
   xmlns:sodipodi="http://sodipodi.sourceforge.net/DTD/sodipodi-0.dtd"
   xmlns:inkscape="http://www.inkscape.org/namespaces/inkscape"
   id="svg7384"
   style="enable-background:new"
   height="16"
   width="16"
   version="1.1"
   inkscape:version="0.91 r13725"
   sodipodi:docname="battery-missing-symbolic.svg">
  <sodipodi:namedview
     pagecolor="#a1a1a1"
     bordercolor="#666666"
     borderopacity="1"
     objecttolerance="10"
     gridtolerance="10"
     guidetolerance="10"
     inkscape:pageopacity="0"
     inkscape:pageshadow="2"
     inkscape:window-width="1366"
     inkscape:window-height="633"
     id="namedview11"
     showgrid="false"
     inkscape:zoom="22.627417"
     inkscape:cx="4.3154136"
     inkscape:cy="10.397301"
     inkscape:window-x="0"
     inkscape:window-y="33"
     inkscape:window-maximized="1"
     inkscape:current-layer="svg7384" />
  <metadata
     id="metadata90">
    <rdf:RDF>
      <cc:Work
         rdf:about="">
        <dc:format>image/svg+xml</dc:format>
        <dc:type
           rdf:resource="http://purl.org/dc/dcmitype/StillImage" />
        <dc:title>Paper Symbolic Icon Theme</dc:title>
      </cc:Work>
    </rdf:RDF>
  </metadata>
  <title
     id="title8473">Paper Symbolic Icon Theme</title>
  <defs
     id="defs7386">
    <filter
       id="filter7554"
       style="color-interpolation-filters:sRGB">
      <feBlend
         id="feBlend7556"
         in2="BackgroundImage"
         mode="darken" />
    </filter>
  </defs>
  <g
     style="fill:#ffffff;fill-opacity:1"
     id="g4250"
     transform="matrix(0.52112417,0,0,0.52112417,20.767536,5.3452696)">
    <path
       style="fill:#bebebe;fill-opacity:1"
       d="M 1.6035156 3.90625 C 1.2699962 3.90625 1 4.1772302 1 4.5097656 L 1 11.490234 C 1 11.824258 1.2699962 12.09375 1.6035156 12.09375 L 13.318359 12.09375 C 13.652352 12.09375 13.921875 11.823755 13.921875 11.490234 L 13.921875 10.251953 L 14.396484 10.251953 C 14.730488 10.251953 15 9.9834201 15 9.6484375 L 15 6.4042969 C 15.000521 6.0702975 14.730485 5.7988281 14.396484 5.7988281 L 13.921875 5.7988281 L 13.921875 4.5097656 C 13.921875 4.1772302 13.652378 3.90625 13.318359 3.90625 L 1.6035156 3.90625 z M 7.1953125 5 C 7.6885375 5 8.0894944 5.1467702 8.3984375 5.4394531 C 8.7073806 5.726716 8.8613281 6.0950574 8.8613281 6.5449219 C 8.8613281 6.7400438 8.8100123 6.9381298 8.7070312 7.1386719 C 8.6040502 7.3392139 8.5129414 7.4816385 8.4316406 7.5683594 C 8.3557599 7.6496602 8.2463902 7.7566375 8.1054688 7.8867188 L 8.0664062 7.9277344 C 7.7357829 8.2258374 7.5703125 8.5222095 7.5703125 8.8203125 L 7.5703125 9.1464844 L 6.8046875 9.1464844 L 6.8046875 8.7636719 C 6.8046875 8.5197695 6.8560033 8.3121136 6.9589844 8.1386719 C 7.0619654 7.9598101 7.2437436 7.7502012 7.5039062 7.5117188 C 7.6502477 7.3762174 7.7528794 7.2759782 7.8125 7.2109375 C 7.8775407 7.1404768 7.9403794 7.0469755 8 6.9277344 C 8.0650406 6.8030731 8.0976562 6.6750032 8.0976562 6.5449219 C 8.0976562 6.2955994 8.0161173 6.0951209 7.8535156 5.9433594 C 7.6963341 5.7915978 7.4771553 5.7148437 7.1953125 5.7148438 C 6.7291878 5.7148438 6.4097699 5.9757685 6.2363281 6.4960938 L 5.5371094 6.203125 C 5.6509305 5.8941819 5.8466241 5.6169493 6.1230469 5.3730469 C 6.4048897 5.1237243 6.7617082 5 7.1953125 5 z M 7.1875 9.8945312 C 7.3446816 9.8945312 7.475144 9.9482396 7.578125 10.056641 C 7.6865261 10.165042 7.7402344 10.295504 7.7402344 10.447266 C 7.7402344 10.599027 7.6865261 10.729489 7.578125 10.837891 C 7.475144 10.946291 7.3446816 11 7.1875 11 C 7.0303184 11 6.8974636 10.946291 6.7890625 10.837891 C 6.6860814 10.729489 6.6347656 10.599027 6.6347656 10.447266 C 6.6347656 10.295504 6.6860814 10.165042 6.7890625 10.056641 C 6.8974636 9.9482396 7.0303184 9.8945312 7.1875 9.8945312 z "
       transform="matrix(1.9189285,0,0,1.9189285,-39.851416,-10.25719)"
       id="path4359" />
    <g
       style="fill:#ffffff;fill-opacity:1"
       transform="matrix(0.02205965,0,0,0.02205965,-29.900002,-0.39149138)"
       id="g3-9">
      <g
         style="fill:#ffffff;fill-opacity:1"
         id="g5-4" />
    </g>
  </g>
  <g
     style="font-style:normal;font-weight:normal;font-size:11.59667683px;line-height:125%;font-family:sans-serif;letter-spacing:0px;word-spacing:0px;fill:#ffffff;fill-opacity:1;stroke:none;stroke-width:1px;stroke-linecap:butt;stroke-linejoin:miter;stroke-opacity:1"
     id="text4361"
     transform="matrix(0.70106994,0,0,0.70106994,9.9402527,3.2870368)" />
</svg>
